X:120
T:Lord John Campbell's Strathspey
S:Andrew Small
M:4/4
L:1/8
Q:1/4=108
K:G
D    | G<G      ({GA}B>)G    (FA)A>B       |      G<GB>G        d>GB>G       |\
       c(e/c/)       B(d/B/) (c/B/A/G/) F>A|      G<G ({ga}b>)a gGG         :|
b/c'/|(d'/c'/b/a/)   g>b      c'e'/a/ (bc')|({bc'}d'>b)(c'>a)  (b>g) {b}(a>f)|\
      (g/f/e/d/) ({f}g)G      F>AA>B       |      G<G ({ga}b>)a gGG         :|

